app/images/search-black.svg

<svg fill="none" height="20" viewBox="0 0 20 20" width="20" xmlns="http://www.w3.org/2000/svg"><g clip-rule="evenodd" fill="#000" fill-rule="evenodd"><path d="m9.16667 3.33341c-3.22166 0-5.83333 2.61168-5.83333 5.83334 0 3.22165 2.61167 5.83335 5.83333 5.83335 3.22163 0 5.83333-2.6117 5.83333-5.83335 0-3.22166-2.6117-5.83334-5.83333-5.83334zm-7.5 5.83334c0-4.14214 3.35787-7.5 7.5-7.5s7.50003 3.35786 7.50003 7.5c0 4.14215-3.3579 7.49995-7.50003 7.49995s-7.5-3.3578-7.5-7.49995z"/><path d="m13.2857 13.2858c.3255-.3254.8531-.3254 1.1785 0l3.625 3.625c.3255.3255.3255.8531 0 1.1785-.3254.3255-.853.3255-1.1785 0l-3.625-3.625c-.3254-.3254-.3254-.853 0-1.1785z"/></g></svg>

<svg width="20" height="20" viewBox="0 0 20 20" fill="none" xmlns="http://www.w3.org/2000/svg">
  <path fill-rule="evenodd" clip-rule="evenodd" d="M9.16667 3.33341C5.94501 3.33341 3.33334 5.94509 3.33334 9.16675C3.33334 12.3884 5.94501 15.0001 9.16667 15.0001C12.3883 15.0001 15 12.3884 15 9.16675C15 5.94509 12.3883 3.33341 9.16667 3.33341ZM1.66667 9.16675C1.66667 5.02461 5.02454 1.66675 9.16667 1.66675C13.3088 1.66675 16.6667 5.02461 16.6667 9.16675C16.6667 13.3089 13.3088 16.6667 9.16667 16.6667C5.02454 16.6667 1.66667 13.3089 1.66667 9.16675Z" fill="black"/>
  <path fill-rule="evenodd" clip-rule="evenodd" d="M13.2857 13.2858C13.6112 12.9604 14.1388 12.9604 14.4642 13.2858L18.0892 16.9108C18.4147 17.2363 18.4147 17.7639 18.0892 18.0893C17.7638 18.4148 17.2362 18.4148 16.9107 18.0893L13.2857 14.4643C12.9603 14.1389 12.9603 13.6113 13.2857 13.2858Z" fill="black"/>
</svg>
